img/section8-footer-mobile.svg

<svg fill="none" height="10" viewBox="0 0 340 10" width="340" xmlns="http://www.w3.org/2000/svg"><g fill="#fff"><path d="m204.495 6.98554c.026.39655-.044.79344-.202 1.15653s-.4.68151-.705.9279c-.646.45897-1.424.68367-2.209.63821-.631.0031-1.257-.10271-1.853-.31294-.26-.07651-.506-.19569-.728-.35286l.538-1.06965c.608.31618 1.278.48597 1.96.49636.383.01423.762-.08559 1.09-.2873.164-.09765.3-.23894.393-.40893.092-.17.138-.36239.133-.55683.002-.15759-.033-.31345-.102-.45427s-.171-.26241-.296-.35438c-.426-.25585-.882-.45341-1.358-.58757-.554-.15885-1.075-.4198-1.538-.77001-.239-.21307-.428-.47879-.552-.7772-.125-.2984-.181-.6217-.165-.94559-.022-.37308.047-.74576.201-1.08489.154-.33914.387-.63421.679-.85898.604-.435371 1.333-.651309 2.07-.613216.825-.026624 1.643.147639 2.388.508366l-.357 1.09659c-.62-.22321-1.272-.3379-1.929-.33924-.356-.01507-.708.0801-1.009.27301-.147.09912-.266.23507-.347.3948-.08.15974-.119.3379-.113.5174 0 .17063.047.33788.135.48288s.214.26199.364.33778c.475.2375.972.42942 1.482.57329.521.14325 1.004.40095 1.417.75508.209.20941.371.46179.477.74036.106.27858.152.57696.136.8753z"/><path d="m209.094 9.27129c-.581.27851-1.211.43378-1.852.45642-.937 0-1.478-.39149-1.621-1.17449-.059-.37073-.085-.74612-.077-1.12159v-3.00052h-1.023v-.86188l1.022-.19478.217-1.73642 1.329-.23373v1.97015h1.826l-.153 1.05666h-1.673v3.22029c-.017.22309.018.447.102.6538.061.09595.147.17253.249.22115.102.04863.214.06737.326.05413.344-.01729.685-.08744 1.009-.20808z"/><path d="m214.383 9.58539h-1.29l-.115-.70444c-.22.25791-.491.46562-.795.60959-.303.14397-.633.22098-.968.226-.24.01463-.48-.02719-.702-.12225-.221-.09506-.419-.24081-.576-.42604-.291-.39813-.435-.88757-.409-1.38324-.023-.37559.079-.74813.291-1.05643.211-.30829.519-.53401.872-.64006.723-.18343 1.464-.27984 2.209-.2873v-.32462c.033-.29221-.039-.58667-.204-.8278-.232-.17441-.519-.25218-.805-.2175-.532.02205-1.059.10924-1.57.2597l-.267-.89921c.74-.35167 1.545-.53835 2.361-.54765.869 0 1.44.23936 1.713.71807.169.30299.254.88126.254 1.73481zm-1.482-1.4975v-1.50237c-.416.00661-.828.07216-1.226.19478-.197.05773-.369.18072-.489.34952-.121.16879-.182.37376-.176.58248-.018.11474-.009.23209.026.34273.035.11063.094.2115.173.29458.08.08308.177.14608.285.18399.107.03792.222.0497.334.03441.4-.03582.776-.20449 1.073-.48012z"/><path d="m220.731 9.58539h-1.545v-3.75787c.016-.29098-.019-.58259-.102-.86124-.05-.13521-.142-.24972-.262-.32531s-.262-.10791-.402-.09183c-.51.05338-.996.24703-1.406.5603v4.47595h-1.546v-6.21075h1.329l.114.82131c.792-.63454 1.491-.95181 2.097-.95181.742 0 1.24.25646 1.494.76937.183.48591.261 1.00622.23 1.52574z"/><path d="m227.259 9.58667h-1.341l-.102-.74372c-.204.27249-.467.49329-.769.64528-.301.15199-.632.23111-.968.23121-.366.01289-.728-.0763-1.048-.25798-.319-.18167-.584-.44894-.766-.77303-.361-.65659-.538-1.40224-.511-2.15487-.031-.76294.127-1.52155.459-2.20552.163-.33831.419-.62083.737-.81307.317-.19225.683-.28591 1.052-.26955.64.03951 1.246.30733 1.712.7567v-3.366375l1.545-.235354zm-1.545-1.80038v-2.77945c-.33-.2747-.738-.4347-1.163-.45675-.791 0-1.187.64795-1.188 1.94386 0 1.27925.375 1.91865 1.125 1.91822.237-.00293.471-.06077.683-.16917.213-.1084.398-.26454.543-.45671z"/><path d="m233.199 9.58539h-1.289l-.116-.70444c-.219.25809-.49.46592-.793.60991-.304.14399-.634.22089-.968.22568-.24.01468-.48-.02713-.702-.1222-.221-.09506-.418-.24085-.576-.42609-.291-.39761-.437-.88729-.41-1.38324-.023-.37557.079-.74805.291-1.05632.211-.30827.518-.53401.872-.64017.723-.18348 1.464-.2799 2.209-.2873v-.32462c.033-.29221-.039-.58667-.204-.8278-.232-.17441-.52-.25218-.805-.2175-.532.0221-1.059.10929-1.571.2597l-.269-.90051c.742-.35134 1.547-.53758 2.364-.54635.869 0 1.439.23936 1.712.71807.169.30299.254.88126.254 1.73481zm-1.481-1.4975v-1.50237c-.416.00661-.829.07216-1.227.19478-.196.05773-.368.18072-.488.34952-.121.16879-.183.37376-.176.58248-.018.11465-.009.2319.026.34245.034.11055.094.21136.173.29441.079.08306.176.14609.284.18408.107.03798.222.04989.334.03477.4-.03561.777-.2043 1.074-.48012z"/><path d="m237.951 4.65305c-.391-.01299-.781.05548-1.146.20125-.364.14578-.696.3658-.975.64668v4.08445h-1.545v-6.21075h1.328l.115 1.03036c.201-.25568.438-.48008.702-.66613.444-.32446.976-.49761 1.521-.49473z"/><path d="m243.789 9.58667h-1.341l-.102-.74372c-.205.27249-.468.49329-.769.64528s-.633.23111-.969.23121c-.365.01289-.727-.0763-1.047-.25798-.319-.18167-.584-.44894-.766-.77303-.362-.65659-.538-1.40224-.511-2.15487-.031-.76294.126-1.52155.459-2.20552.163-.33844.419-.62105.737-.81331.317-.19226.683-.28584 1.052-.26931.64.03942 1.246.30726 1.712.7567v-3.366375l1.545-.235354zm-1.545-1.80038v-2.77945c-.33-.2747-.738-.4347-1.163-.45675-.792 0-1.188.64795-1.187 1.94386 0 1.27925.374 1.91865 1.123 1.91822.238-.003.471-.06087.684-.16927.212-.10839.398-.2645.543-.45661z"/><path d="m253.46 7.22471c.031.45691-.088.91124-.338 1.29152-.25.38027-.617.66491-1.042.80914-.434.17313-1.252.2597-2.453.2597h-2.094v-8.702258h2.363c1.082 0 1.84.091221 2.274.273658.732.31402 1.098.94488 1.098 1.89257 0 1.17364-.592 1.86076-1.775 2.06138 1.311.13981 1.967.84457 1.967 2.11429zm-1.75-3.99323c.02-.19105-.01-.38421-.089-.55878-.079-.17458-.202-.32401-.358-.4323-.421-.17513-.876-.24695-1.329-.20971h-.817v2.55871h.651c.46.03121.922-.04012 1.353-.20906.392-.19045.589-.5734.589-1.14886zm.102 3.79066c.026-.24489-.026-.49186-.148-.70438-.122-.21251-.307-.37928-.529-.47563-.389-.11924-.796-.16802-1.201-.14414h-.817v2.74017h.588c.496.03489.995-.02759 1.469-.18406.425-.20971.638-.6209.638-1.23358"/><path d="m258.89 9.58539h-1.291l-.114-.70444c-.22.25791-.49.46562-.794.60959s-.634.22098-.969.226c-.24.01463-.48-.02719-.701-.12225-.222-.09506-.419-.24081-.577-.42604-.291-.39798-.435-.88753-.408-1.38324-.024-.37538.078-.74776.289-1.05602.211-.30827.519-.53411.872-.64047.723-.18346 1.465-.27988 2.21-.2873v-.32462c.032-.29216-.041-.58638-.205-.8278-.231-.17407-.518-.25183-.804-.2175-.531.0221-1.059.10929-1.57.2597l-.269-.90051c.741-.35127 1.546-.53751 2.363-.54635.869 0 1.439.23936 1.712.71807.169.30299.255.88126.256 1.73481zm-1.482-1.4975v-1.50237c-.415.00669-.828.07224-1.226.19478-.196.05773-.368.18072-.489.34952-.12.16879-.182.37376-.176.58248-.017.11465-.008.2319.026.34245.035.11055.094.21136.173.29441.08.08306.177.14609.284.18408.108.03798.222.04989.335.03477.399-.03561.776-.2043 1.073-.48012z"/><path d="m265.493 9.58539h-1.546v-3.75787c.016-.29101-.019-.58257-.103-.86124-.049-.13506-.142-.24939-.262-.32493s-.262-.10798-.402-.09221c-.51.05363-.995.24726-1.406.5603v4.47595h-1.545v-6.21075h1.328l.115.82131c.793-.63454 1.491-.95181 2.095-.95181.741 0 1.238.25646 1.494.76937.183.48593.261 1.00619.231 1.52574z"/><path d="m266.848.635095v8.950915h1.546v-2.92163l2.209 2.92163h1.776l-2.554-3.2495 2.389-2.9606h-1.639l-2.181 2.76582v-5.741339z"/><path d="m284.433 0-1.433 1.84615h1.307l2.022-1.84615zm-3.069 2.27531-2.07 7.5534h5.441l.451-1.64293h-3.445l.383-1.39817h2.336l.437-1.59359h-2.337l.336-1.22384h3.273l.465-1.69487z"/><path d="m290.659 2.27344h2.767c1.577 0 3.101.33728 2.49 2.57201-.612 2.23473-2.452 2.57331-3.9 2.57331h-.79l-.66 2.40808h-1.976zm1.852 3.59393c.929 0 1.287-.39864 1.443-.97063.157-.57199.016-.97063-.913-.97063h-.858l-.531 1.94126z"/><path d="m296.166 6.0517c.757-2.76679 2.922-3.92084 4.708-3.92084 1.778 0 3.309 1.15307 2.551 3.91986-.757 2.76679-2.92 3.92051-4.697 3.92051-1.788 0-3.319-1.15307-2.562-3.91953zm5.263 0c.381-1.38843.023-2.23473-1.017-2.23473-1.047 0-1.868.8463-2.249 2.23473-.381 1.38842-.037 2.28601 1.012 2.28601 1.038 0 1.875-.89759 2.254-2.28601z"/><path d="m303.358 8.16729 1.734-.94141c.112.34556.331.64441.624.85092s.644.30932 1 .29274c.61 0 1.119-.18342 1.248-.6538.131-.47915-.409-.66386-1.087-.84727-1.121-.31424-2.642-.63075-2.173-2.3464.422-1.541 1.794-2.3873 3.471-2.3873 1.567 0 2.302.74436 2.688 1.47964l-1.643 1.12223c-.151-.27721-.368-.51017-.632-.67638-.265-.16621-.566-.26006-.876-.2725-.569 0-.912.19478-1.01.55187-.137.49895.392.68236 1.071.8661 1.127.29509 2.642.67327 2.177 2.36815-.331 1.20598-1.487 2.40028-3.764 2.40028-1.687 0-2.483-.77585-2.828-1.80687z"/><path d="m310.338 8.16729 1.735-.94141c.111.34556.33.64441.623.85092.294.20651.645.30932 1.001.29274.609 0 1.119-.18342 1.247-.6538.131-.47915-.408-.66386-1.087-.84727-1.12-.31424-2.642-.63075-2.173-2.3464.423-1.541 1.794-2.3873 3.472-2.3873 1.567 0 2.301.74436 2.688 1.47964l-1.644 1.12223c-.15-.27721-.368-.51017-.632-.67638s-.566-.26006-.876-.2725c-.569 0-.912.19478-1.009.55187-.138.49895.391.68236 1.071.8661 1.126.29509 2.641.67327 2.176 2.36815-.331 1.20598-1.487 2.40028-3.763 2.40028-1.688 0-2.483-.77585-2.829-1.80687z"/><path d="m321.252 0-1.434 1.84615h1.308l2.023-1.84615zm-1.742 2.27531-2.069 7.5534h1.997l2.07-7.5534z"/><path d="m327.43 2.27344-2.904 4.90932h-.019l-.134-4.90932h-2.017l.44 7.58424h1.897l4.593-7.58424z"/><path d="m330.075 2.27344-2.069 7.5534h5.441l.451-1.64293h-3.445l.382-1.39817h2.337l.436-1.59294h-2.336l.336-1.22449h3.275l.465-1.69487z"/><path d="m336.516 2.27344-2.069 7.5534h5.103l.45-1.64293h-3.106l1.618-5.91047z"/><path d="m5.25458.884766-5.25458 9.114204h187.24v-9.114204z"/></g></svg>

<svg width="340" height="10" viewBox="0 0 340 10" fill="none" xmlns="http://www.w3.org/2000/svg">
<path d="M204.495 6.98554C204.521 7.38209 204.451 7.77898 204.293 8.14207C204.135 8.50516 203.893 8.82358 203.588 9.06997C202.942 9.52894 202.164 9.75364 201.379 9.70818C200.748 9.71128 200.122 9.60547 199.526 9.39524C199.266 9.31873 199.02 9.19955 198.798 9.04238L199.336 7.97273C199.944 8.28891 200.614 8.4587 201.296 8.46909C201.679 8.48332 202.058 8.3835 202.386 8.18179C202.55 8.08414 202.686 7.94285 202.779 7.77286C202.871 7.60286 202.917 7.41047 202.912 7.21603C202.914 7.05844 202.879 6.90258 202.81 6.76176C202.741 6.62094 202.639 6.49935 202.514 6.40738C202.088 6.15153 201.632 5.95397 201.156 5.81981C200.602 5.66096 200.081 5.40001 199.618 5.0498C199.379 4.83673 199.19 4.57101 199.066 4.2726C198.941 3.9742 198.885 3.6509 198.901 3.32701C198.879 2.95393 198.948 2.58125 199.102 2.24212C199.256 1.90298 199.489 1.60791 199.781 1.38314C200.385 0.947769 201.114 0.731831 201.851 0.769924C202.676 0.7433 203.494 0.917563 204.239 1.27829L203.882 2.37488C203.262 2.15167 202.61 2.03698 201.953 2.03564C201.597 2.02057 201.245 2.11574 200.944 2.30865C200.797 2.40777 200.678 2.54372 200.597 2.70345C200.517 2.86319 200.478 3.04135 200.484 3.22085C200.484 3.39148 200.531 3.55873 200.619 3.70373C200.707 3.84873 200.833 3.96572 200.983 4.04151C201.458 4.27901 201.955 4.47093 202.465 4.6148C202.986 4.75805 203.469 5.01575 203.882 5.36988C204.091 5.57929 204.253 5.83167 204.359 6.11024C204.465 6.38882 204.511 6.6872 204.495 6.98554Z" fill="white"/>
<path d="M209.094 9.27129C208.513 9.5498 207.883 9.70507 207.242 9.72771C206.305 9.72771 205.764 9.33622 205.621 8.55322C205.562 8.18249 205.536 7.8071 205.544 7.43163V4.43111H204.521V3.56923L205.543 3.37445L205.76 1.63803L207.089 1.4043V3.37445H208.915L208.762 4.43111H207.089V7.6514C207.072 7.87449 207.107 8.0984 207.191 8.3052C207.252 8.40115 207.338 8.47773 207.44 8.52635C207.542 8.57498 207.654 8.59372 207.766 8.58048C208.11 8.56319 208.451 8.49304 208.775 8.3724L209.094 9.27129Z" fill="white"/>
<path d="M214.383 9.58539H213.093L212.978 8.88095C212.758 9.13886 212.487 9.34657 212.183 9.49054C211.88 9.63451 211.55 9.71152 211.215 9.71654C210.975 9.73117 210.735 9.68935 210.513 9.59429C210.292 9.49923 210.094 9.35348 209.937 9.16825C209.646 8.77012 209.502 8.28068 209.528 7.78501C209.505 7.40942 209.607 7.03688 209.819 6.72858C210.03 6.42029 210.338 6.19457 210.691 6.08852C211.414 5.90509 212.155 5.80868 212.9 5.80122V5.4766C212.933 5.18439 212.861 4.88993 212.696 4.6488C212.464 4.47439 212.177 4.39662 211.891 4.4313C211.359 4.45335 210.832 4.54054 210.321 4.691L210.054 3.79179C210.794 3.44012 211.599 3.25344 212.415 3.24414C213.284 3.24414 213.855 3.4835 214.128 3.96221C214.297 4.2652 214.382 4.84347 214.382 5.69702L214.383 9.58539ZM212.901 8.08789V6.58552C212.485 6.59213 212.073 6.65768 211.675 6.7803C211.478 6.83803 211.306 6.96102 211.186 7.12982C211.065 7.29861 211.004 7.50358 211.01 7.7123C210.992 7.82704 211.001 7.94439 211.036 8.05503C211.071 8.16566 211.13 8.26653 211.209 8.34961C211.289 8.43269 211.386 8.49569 211.494 8.5336C211.601 8.57152 211.716 8.5833 211.828 8.56801C212.228 8.53219 212.604 8.36352 212.901 8.08789Z" fill="white"/>
<path d="M220.731 9.58539H219.186V5.82752C219.202 5.53654 219.167 5.24493 219.084 4.96628C219.034 4.83107 218.942 4.71656 218.822 4.64097C218.702 4.56538 218.56 4.53306 218.42 4.54914C217.91 4.60252 217.424 4.79617 217.014 5.10944V9.58539H215.468V3.37464H216.797L216.911 4.19595C217.703 3.56141 218.402 3.24414 219.008 3.24414C219.75 3.24414 220.248 3.5006 220.502 4.01351C220.685 4.49942 220.763 5.01973 220.732 5.53925L220.731 9.58539Z" fill="white"/>
<path d="M227.259 9.58667H225.918L225.816 8.84295C225.612 9.11544 225.349 9.33624 225.047 9.48823C224.746 9.64022 224.415 9.71934 224.079 9.71944C223.713 9.73233 223.351 9.64314 223.031 9.46146C222.712 9.27979 222.447 9.01252 222.265 8.68843C221.904 8.03184 221.727 7.28619 221.754 6.53356C221.723 5.77062 221.881 5.01201 222.213 4.32804C222.376 3.98973 222.632 3.70721 222.95 3.51497C223.267 3.32272 223.633 3.22906 224.002 3.24542C224.642 3.28493 225.248 3.55275 225.714 4.00212V0.635745L227.259 0.400391V9.58667ZM225.714 7.78629V5.00684C225.384 4.73214 224.976 4.57214 224.551 4.55009C223.76 4.55009 223.364 5.19804 223.363 6.49395C223.363 7.7732 223.738 8.4126 224.488 8.41217C224.725 8.40924 224.959 8.3514 225.171 8.243C225.384 8.1346 225.569 7.97846 225.714 7.78629Z" fill="white"/>
<path d="M233.199 9.58539H231.91L231.794 8.88095C231.575 9.13904 231.304 9.34687 231.001 9.49086C230.697 9.63485 230.367 9.71175 230.033 9.71654C229.793 9.73122 229.553 9.68941 229.331 9.59434C229.11 9.49928 228.913 9.35349 228.755 9.16825C228.464 8.77064 228.318 8.28096 228.345 7.78501C228.322 7.40944 228.424 7.03696 228.636 6.72869C228.847 6.42042 229.154 6.19468 229.508 6.08852C230.231 5.90504 230.972 5.80862 231.717 5.80122V5.4766C231.75 5.18439 231.678 4.88993 231.513 4.6488C231.281 4.47439 230.993 4.39662 230.708 4.4313C230.176 4.4534 229.649 4.54059 229.137 4.691L228.868 3.79049C229.61 3.43915 230.415 3.25291 231.232 3.24414C232.101 3.24414 232.671 3.4835 232.944 3.96221C233.113 4.2652 233.198 4.84347 233.198 5.69702L233.199 9.58539ZM231.718 8.08789V6.58552C231.302 6.59213 230.889 6.65768 230.491 6.7803C230.295 6.83803 230.123 6.96102 230.003 7.12982C229.882 7.29861 229.82 7.50358 229.827 7.7123C229.809 7.82695 229.818 7.9442 229.853 8.05475C229.887 8.1653 229.947 8.26611 230.026 8.34916C230.105 8.43222 230.202 8.49525 230.31 8.53324C230.417 8.57122 230.532 8.58313 230.644 8.56801C231.044 8.5324 231.421 8.36371 231.718 8.08789Z" fill="white"/>
<path d="M237.951 4.65305C237.56 4.64006 237.17 4.70853 236.805 4.8543C236.441 5.00008 236.109 5.2201 235.83 5.50098V9.58543H234.285V3.37468H235.613L235.728 4.40504C235.929 4.14936 236.166 3.92496 236.43 3.73891C236.874 3.41445 237.406 3.2413 237.951 3.24418V4.65305Z" fill="white"/>
<path d="M243.789 9.58667H242.448L242.346 8.84295C242.141 9.11544 241.878 9.33624 241.577 9.48823C241.276 9.64022 240.944 9.71934 240.608 9.71944C240.243 9.73233 239.881 9.64314 239.561 9.46146C239.242 9.27979 238.977 9.01252 238.795 8.68843C238.433 8.03184 238.257 7.28619 238.284 6.53356C238.253 5.77062 238.41 5.01201 238.743 4.32804C238.906 3.9896 239.162 3.70699 239.48 3.51473C239.797 3.32247 240.163 3.22889 240.532 3.24542C241.172 3.28484 241.778 3.55268 242.244 4.00212V0.635745L243.789 0.400391V9.58667ZM242.244 7.78629V5.00684C241.914 4.73214 241.506 4.57214 241.081 4.55009C240.289 4.55009 239.893 5.19804 239.894 6.49395C239.894 7.7732 240.268 8.4126 241.017 8.41217C241.255 8.40917 241.488 8.3513 241.701 8.2429C241.913 8.13451 242.099 7.9784 242.244 7.78629Z" fill="white"/>
<path d="M253.46 7.22471C253.491 7.68162 253.372 8.13595 253.122 8.51623C252.872 8.8965 252.505 9.18114 252.08 9.32537C251.646 9.4985 250.828 9.58507 249.627 9.58507H247.533V0.882812H249.896C250.978 0.882812 251.736 0.974033 252.17 1.15647C252.902 1.47049 253.268 2.10135 253.268 3.04904C253.268 4.22268 252.676 4.9098 251.493 5.11042C252.804 5.25023 253.46 5.95499 253.46 7.22471ZM251.71 3.23148C251.73 3.04043 251.7 2.84727 251.621 2.6727C251.542 2.49812 251.419 2.34869 251.263 2.2404C250.842 2.06527 250.387 1.99345 249.934 2.03069H249.117V4.5894H249.768C250.228 4.62061 250.69 4.54928 251.121 4.38034C251.513 4.18989 251.71 3.80694 251.71 3.23148ZM251.812 7.02214C251.838 6.77725 251.786 6.53028 251.664 6.31776C251.542 6.10525 251.357 5.93848 251.135 5.84213C250.746 5.72289 250.339 5.67411 249.934 5.69799H249.117V8.43816H249.705C250.201 8.47305 250.7 8.41057 251.174 8.2541C251.599 8.04439 251.812 7.6332 251.812 7.02052" fill="white"/>
<path d="M258.89 9.58539H257.599L257.485 8.88095C257.265 9.13886 256.995 9.34657 256.691 9.49054C256.387 9.63451 256.057 9.71152 255.722 9.71654C255.482 9.73117 255.242 9.68935 255.021 9.59429C254.799 9.49923 254.602 9.35348 254.444 9.16825C254.153 8.77027 254.009 8.28072 254.036 7.78501C254.012 7.40963 254.114 7.03725 254.325 6.72899C254.536 6.42072 254.844 6.19488 255.197 6.08852C255.92 5.90506 256.662 5.80864 257.407 5.80122V5.4766C257.439 5.18444 257.366 4.89022 257.202 4.6488C256.971 4.47473 256.684 4.39697 256.398 4.4313C255.867 4.4534 255.339 4.54059 254.828 4.691L254.559 3.79049C255.3 3.43922 256.105 3.25298 256.922 3.24414C257.791 3.24414 258.361 3.4835 258.634 3.96221C258.803 4.2652 258.889 4.84347 258.89 5.69702V9.58539ZM257.408 8.08789V6.58552C256.993 6.59221 256.58 6.65776 256.182 6.7803C255.986 6.83803 255.814 6.96102 255.693 7.12982C255.573 7.29861 255.511 7.50358 255.517 7.7123C255.5 7.82695 255.509 7.9442 255.543 8.05475C255.578 8.1653 255.637 8.26611 255.716 8.34916C255.796 8.43222 255.893 8.49525 256 8.53324C256.108 8.57122 256.222 8.58313 256.335 8.56801C256.734 8.5324 257.111 8.36371 257.408 8.08789Z" fill="white"/>
<path d="M265.493 9.58539H263.947V5.82752C263.963 5.53651 263.928 5.24495 263.844 4.96628C263.795 4.83122 263.702 4.71689 263.582 4.64135C263.462 4.56581 263.32 4.53337 263.18 4.54914C262.67 4.60277 262.185 4.7964 261.774 5.10944V9.58539H260.229V3.37464H261.557L261.672 4.19595C262.465 3.56141 263.163 3.24414 263.767 3.24414C264.508 3.24414 265.005 3.5006 265.261 4.01351C265.444 4.49944 265.522 5.0197 265.492 5.53925L265.493 9.58539Z" fill="white"/>
<path d="M266.848 0.635095V9.58601H268.394V6.66438L270.603 9.58601H272.379L269.825 6.33651L272.214 3.37591H270.575L268.394 6.14173V0.400391L266.848 0.635095Z" fill="white"/>
<path d="M284.433 0L283 1.84615H284.307L286.329 0H284.433ZM281.364 2.27531L279.294 9.82871H284.735L285.186 8.18578H281.741L282.124 6.78761H284.46L284.897 5.19402H282.56L282.896 3.97018H286.169L286.634 2.27531H281.364Z" fill="white"/>
<path d="M290.659 2.27344H293.426C295.003 2.27344 296.527 2.61072 295.916 4.84545C295.304 7.08018 293.464 7.41876 292.016 7.41876H291.226L290.566 9.82684H288.59L290.659 2.27344ZM292.511 5.86737C293.44 5.86737 293.798 5.46873 293.954 4.89674C294.111 4.32475 293.97 3.92611 293.041 3.92611H292.183L291.652 5.86737H292.511Z" fill="white"/>
<path d="M296.166 6.0517C296.923 3.28491 299.088 2.13086 300.874 2.13086C302.652 2.13086 304.183 3.28393 303.425 6.05072C302.668 8.81751 300.505 9.97123 298.728 9.97123C296.94 9.97123 295.409 8.81816 296.166 6.0517ZM301.429 6.0517C301.81 4.66327 301.452 3.81697 300.412 3.81697C299.365 3.81697 298.544 4.66327 298.163 6.0517C297.782 7.44012 298.126 8.33771 299.175 8.33771C300.213 8.33771 301.05 7.44012 301.429 6.0517Z" fill="white"/>
<path d="M303.358 8.16729L305.092 7.22588C305.204 7.57144 305.423 7.87029 305.716 8.0768C306.009 8.28331 306.36 8.38612 306.716 8.36954C307.326 8.36954 307.835 8.18612 307.964 7.71574C308.095 7.23659 307.555 7.05188 306.877 6.86847C305.756 6.55423 304.235 6.23772 304.704 4.52207C305.126 2.98107 306.498 2.13477 308.175 2.13477C309.742 2.13477 310.477 2.87913 310.863 3.61441L309.22 4.73664C309.069 4.45943 308.852 4.22647 308.588 4.06026C308.323 3.89405 308.022 3.8002 307.712 3.78776C307.143 3.78776 306.8 3.98254 306.702 4.33963C306.565 4.83858 307.094 5.02199 307.773 5.20573C308.9 5.50082 310.415 5.879 309.95 7.57388C309.619 8.77986 308.463 9.97416 306.186 9.97416C304.499 9.97416 303.703 9.19831 303.358 8.16729Z" fill="white"/>
<path d="M310.338 8.16729L312.073 7.22588C312.184 7.57144 312.403 7.87029 312.696 8.0768C312.99 8.28331 313.341 8.38612 313.697 8.36954C314.306 8.36954 314.816 8.18612 314.944 7.71574C315.075 7.23659 314.536 7.05188 313.857 6.86847C312.737 6.55423 311.215 6.23772 311.684 4.52207C312.107 2.98107 313.478 2.13477 315.156 2.13477C316.723 2.13477 317.457 2.87913 317.844 3.61441L316.2 4.73664C316.05 4.45943 315.832 4.22647 315.568 4.06026C315.304 3.89405 315.002 3.8002 314.692 3.78776C314.123 3.78776 313.78 3.98254 313.683 4.33963C313.545 4.83858 314.074 5.02199 314.754 5.20573C315.88 5.50082 317.395 5.879 316.93 7.57388C316.599 8.77986 315.443 9.97416 313.167 9.97416C311.479 9.97416 310.684 9.19831 310.338 8.16729Z" fill="white"/>
<path d="M321.252 0L319.818 1.84615H321.126L323.149 0H321.252ZM319.51 2.27531L317.441 9.82871H319.438L321.508 2.27531H319.51Z" fill="white"/>
<path d="M327.43 2.27344L324.526 7.18276H324.507L324.373 2.27344H322.356L322.796 9.85768H324.693L329.286 2.27344H327.43Z" fill="white"/>
<path d="M330.075 2.27344L328.006 9.82684H333.447L333.898 8.18391H330.453L330.835 6.78574H333.172L333.608 5.1928H331.272L331.608 3.96831H334.883L335.348 2.27344H330.075Z" fill="white"/>
<path d="M336.516 2.27344L334.447 9.82684H339.55L340 8.18391H336.894L338.512 2.27344H336.516Z" fill="white"/>
<path d="M5.25458 0.884766L0 9.99897H187.24V0.884766L5.25458 0.884766Z" fill="white"/>
</svg>
